X:1
T:The Honeybee
R:slip jig
C:Vincent Broderick
D:Double Barrelled, John Skelton & Kieran O'Hare
B:Vincent Broderick, The Turoe Stone
Z:Paul Stewart Cranford (P.S.C.), <http://www.cranfordpub.com>
L:1/8
Q:288
M:9/8
K:G
~G3 BAG d3|~G3EFG DEF|G2 G BAG d2 g|ege edB BAB:|
||~g3 efg def|gfg efg a2 z|~g3 efg dga|bag efg a2 z|
~g3 efg def|gfg efg a2 g|bag agf ged|ege edB BAB|]
